svg/white/xlm.svg

<svg xmlns="http://www.w3.org/2000/svg" width="32" height="32" viewBox="0 0 32 32">
  <path fill="#FFF" fill-rule="evenodd" d="M12.7786055,13.5272375 C11.0900134,13.1708764 8.61194945,13.4702804 6.1396358,16.6938762 C6.02015744,16.8501433 5.96126861,17.0856417 6.28589253,16.9828339 C7.06790592,16.7355138 8.68645649,16.4532704 10.6384268,17.4064887 C10.6182282,17.4428994 10.6003996,17.474819 10.5850228,17.5020621 C10.2107627,18.165629 10.4187076,18.5278952 11.0858636,19.0081681 C11.086256,19.0084504 11.0866494,19.0087332 11.0870437,19.0090168 C10.852281,19.1776448 10.6416038,19.3899504 10.4671324,19.643798 C10.4471274,19.6728404 10.4307801,19.7030358 10.4121587,19.7325603 C8.99446975,21.8614723 8.75608826,24.2185603 9.89414947,25.0392638 C11.0324221,25.8607622 13.1194996,24.83643 14.5990036,22.752873 C14.6198157,22.7253225 14.6423317,22.6994528 14.6619459,22.6705147 C14.8379332,22.4147646 14.9627537,22.1378542 15.0385936,21.8524387 C15.0578777,21.8663091 15.0756726,21.8791069 15.0918921,21.8907702 C15.7594655,22.3712936 16.1631061,22.4496919 16.6486909,21.8660132 C16.6756232,21.8336234 16.7089166,21.7940541 16.7482178,21.7476529 C18.3278336,23.2875382 18.616533,24.9361741 18.6511174,25.7649642 C18.665069,26.1050228 18.86239,25.9713746 18.9658356,25.8070749 C21.1551669,22.327458 20.5210718,19.8576275 19.590932,18.3962438 C20.4085446,17.4161014 21.3205781,16.3045911 22.2323208,15.1547874 C24.7805491,11.9421013 23.2257342,6.41285437 22.9197784,6.19256648 L22.9157284,6.1972723 L22.9184371,6.19149112 C22.6128103,5.97111371 16.9924998,6.33774644 14.8897619,9.87066046 C14.1318823,11.1440186 13.4097924,12.4045825 12.7786055,13.5272375 Z M11.7330684,19.4738086 C12.1183608,19.7510503 12.6058277,20.1018182 13.0892505,20.4495497 C13.6277023,20.8371037 14.1714843,21.2284973 14.5732349,21.5176096 C14.5262963,21.6221629 14.4687126,21.7238066 14.4002349,21.8210749 C14.3860591,21.8409967 14.370474,21.8587687 14.3551964,21.8777199 C13.313195,23.3115049 11.8507687,24.0214658 11.0585253,23.4636156 C10.2657886,22.9054853 10.4416505,21.2889511 11.4405609,19.8246515 C11.4538463,19.8045537 11.4648512,19.7838046 11.4794178,19.7637785 C11.5550997,19.6562771 11.6403092,19.5595026 11.7330684,19.4738086 Z M16,32 C7.163444,32 0,24.836556 0,16 C0,7.163444 7.163444,0 16,0 C24.836556,0 32,7.163444 32,16 C32,24.836556 24.836556,32 16,32 Z M16.6651601,10.70357 C17.3868,9.66016287 18.8031886,9.41074267 19.8285609,10.1458306 C20.8539331,10.8809186 21.0999246,12.3225147 20.3776569,13.3649511 C19.6562733,14.4079088 18.2392762,14.6578697 17.2139039,13.9227818 C16.188884,13.1876026 15.9434242,11.7466189 16.6651601,10.70357 Z"/>
</svg>

<svg xmlns="http://www.w3.org/2000/svg" width="32" height="32"><path fill="#FFF" fill-rule="evenodd" d="M12.779 13.527c-1.689-.356-4.167-.057-6.64 3.167-.119.156-.178.392.147.289.782-.247 2.4-.53 4.352.423l-.053.096c-.374.664-.166 1.026.5 1.506l.002.001c-.235.169-.445.381-.62.635-.02.029-.036.059-.055.089-1.418 2.128-1.656 4.486-.518 5.306 1.138.822 3.225-.203 4.705-2.286.02-.028.043-.054.063-.082.176-.256.3-.533.377-.819l.053.039c.667.48 1.071.559 1.557-.025l.1-.118c1.579 1.54 1.868 3.188 1.902 4.017.014.34.211.206.315.042 2.19-3.48 1.555-5.95.625-7.41.818-.98 1.73-2.092 2.641-3.242 2.549-3.213.994-8.742.688-8.962l-.004.004.002-.006c-.305-.22-5.926.147-8.028 3.68a172.718 172.718 0 0 0-2.111 3.656zm-1.046 5.947l1.356.976 1.484 1.068a1.826 1.826 0 0 1-.173.303c-.014.02-.03.038-.045.057-1.042 1.434-2.504 2.143-3.296 1.586-.793-.559-.617-2.175.382-3.64.013-.02.024-.04.038-.06.076-.108.161-.204.254-.29zM16 32C7.163 32 0 24.837 0 16S7.163 0 16 0s16 7.163 16 16-7.163 16-16 16zm.665-21.296a2.245 2.245 0 0 1 3.164-.558 2.336 2.336 0 0 1 .549 3.219 2.245 2.245 0 0 1-3.164.558 2.337 2.337 0 0 1-.549-3.22z"/></svg>
